Newaita-dark/.LP/24/weather-cloudy.svg

<svg xmlns="http://www.w3.org/2000/svg" xmlns:xlink="http://www.w3.org/1999/xlink" width="24px" height="24px" viewBox="0 0 24 24" version="1.1">
<defs>
<linearGradient id="linear0" gradientUnits="userSpaceOnUse" x1="254" y1="233.5" x2="254" y2="254.667007" gradientTransform="matrix(0.046875,0,0,0.046875,0,9.831)">
<stop offset="0" style="stop-color:rgb(0%,0%,0%);stop-opacity:0.275;"/>
<stop offset="1" style="stop-color:rgb(0%,0%,0%);stop-opacity:0;"/>
</linearGradient>
<radialGradient id="radial0" gradientUnits="userSpaceOnUse" cx="450.908997" cy="189.578995" fx="450.908997" fy="189.578995" r="21.167" gradientTransform="matrix(0,-0.058605,-0.10548,0,36.865499,47.448)">
<stop offset="0" style="stop-color:rgb(0%,0%,0%);stop-opacity:0.314;"/>
<stop offset="0.222" style="stop-color:rgb(0%,0%,0%);stop-opacity:0.275;"/>
<stop offset="1" style="stop-color:rgb(0%,0%,0%);stop-opacity:0;"/>
</radialGradient>
<radialGradient id="radial1" gradientUnits="userSpaceOnUse" cx="450.908997" cy="189.578995" fx="450.908997" fy="189.578995" r="21.167" gradientTransform="matrix(0,0.058605,0.10548,0,-14.787,-5.895)">
<stop offset="0" style="stop-color:rgb(0%,0%,0%);stop-opacity:0.314;"/>
<stop offset="0.222" style="stop-color:rgb(0%,0%,0%);stop-opacity:0.275;"/>
<stop offset="1" style="stop-color:rgb(0%,0%,0%);stop-opacity:0;"/>
</radialGradient>
<radialGradient id="radial2" gradientUnits="userSpaceOnUse" cx="450.908997" cy="189.578995" fx="450.908997" fy="189.578995" r="21.167" gradientTransform="matrix(0,-0.058605,0.10548,0,-14.787,47.448)">
<stop offset="0" style="stop-color:rgb(0%,0%,0%);stop-opacity:0.314;"/>
<stop offset="0.222" style="stop-color:rgb(0%,0%,0%);stop-opacity:0.275;"/>
<stop offset="1" style="stop-color:rgb(0%,0%,0%);stop-opacity:0;"/>
</radialGradient>
<radialGradient id="radial3" gradientUnits="userSpaceOnUse" cx="450.908997" cy="189.578995" fx="450.908997" fy="189.578995" r="21.167" gradientTransform="matrix(0,0.058605,-0.10548,0,36.865499,-5.895)">
<stop offset="0" style="stop-color:rgb(0%,0%,0%);stop-opacity:0.314;"/>
<stop offset="0.222" style="stop-color:rgb(0%,0%,0%);stop-opacity:0.275;"/>
<stop offset="1" style="stop-color:rgb(0%,0%,0%);stop-opacity:0;"/>
</radialGradient>
<linearGradient id="linear1" gradientUnits="userSpaceOnUse" x1="211.667007" y1="-20.5" x2="211.667007" y2="-168.667007" gradientTransform="matrix(0.046875,0,0,0.046875,-0.117,10.047)">
<stop offset="0" style="stop-color:rgb(39.215687%,70.980394%,96.470588%);stop-opacity:1;"/>
<stop offset="1" style="stop-color:rgb(56.470591%,79.215688%,97.647059%);stop-opacity:1;"/>
</linearGradient>
<linearGradient id="linear2" gradientUnits="userSpaceOnUse" x1="960" y1="1695.118042" x2="960" y2="815.117981" gradientTransform="matrix(0.0124035,0.000190953,-0.000190953,0.0124035,0,0)">
<stop offset="0" style="stop-color:rgb(39.215687%,70.980394%,96.470588%);stop-opacity:1;"/>
<stop offset="1" style="stop-color:rgb(56.470591%,79.215688%,97.647059%);stop-opacity:1;"/>
</linearGradient>
</defs>
<g id="surface1">
<path style=" stroke:none;fill-rule:nonzero;fill:url(#linear0);" d="M 4.964844 20.777344 L 17.113281 20.777344 L 17.113281 21.769531 L 4.964844 21.769531 Z M 4.964844 20.777344 "/>
<path style=" stroke:none;fill-rule:nonzero;fill:url(#radial0);" d="M 17.113281 20.777344 L 19.101562 20.777344 L 19.101562 19.785156 L 17.113281 19.785156 Z M 17.113281 20.777344 "/>
<path style=" stroke:none;fill-rule:nonzero;fill:url(#radial1);" d="M 4.964844 20.777344 L 2.976562 20.777344 L 2.976562 21.769531 L 4.964844 21.769531 Z M 4.964844 20.777344 "/>
<path style=" stroke:none;fill-rule:nonzero;fill:url(#radial2);" d="M 4.964844 20.777344 L 2.976562 20.777344 L 2.976562 19.785156 L 4.964844 19.785156 Z M 4.964844 20.777344 "/>
<path style=" stroke:none;fill-rule:nonzero;fill:url(#radial3);" d="M 17.113281 20.777344 L 19.101562 20.777344 L 19.101562 21.769531 L 17.113281 21.769531 Z M 17.113281 20.777344 "/>
<path style=" stroke:none;fill-rule:nonzero;fill:url(#linear1);" d="M 13.050781 2.136719 C 11.847656 2.136719 10.792969 2.742188 10.171875 3.660156 C 9.621094 3.316406 8.980469 3.128906 8.332031 3.136719 C 6.796875 3.136719 5.519531 4.113281 5.191406 5.433594 C 4.582031 5.035156 3.800781 5.003906 3.164062 5.355469 C 2.527344 5.699219 2.128906 6.375 2.132812 7.101562 C 2.132812 8.203125 3.019531 9.089844 4.113281 9.089844 L 13.050781 9.089844 C 13.96875 9.089844 14.855469 8.722656 15.503906 8.074219 C 16.160156 7.417969 16.523438 6.535156 16.519531 5.613281 C 16.523438 4.691406 16.160156 3.808594 15.503906 3.160156 C 14.855469 2.503906 13.96875 2.136719 13.050781 2.136719 Z M 5.871094 8.035156 C 5.886719 8.058594 5.90625 8.074219 5.925781 8.089844 L 5.835938 8.089844 C 5.847656 8.074219 5.859375 8.050781 5.871094 8.035156 Z M 5.871094 8.035156 "/>
<path style=" stroke:none;fill-rule:nonzero;fill:url(#linear2);" d="M 16.371094 10.105469 C 14.269531 10.101562 12.347656 11.316406 11.441406 13.21875 C 11.109375 13.128906 10.761719 13.089844 10.417969 13.089844 C 8.769531 13.082031 7.292969 14.105469 6.707031 15.636719 C 5.808594 14.976562 4.605469 14.882812 3.609375 15.394531 C 2.613281 15.902344 1.988281 16.925781 1.988281 18.046875 C 1.988281 19.699219 3.308594 21.023438 4.964844 21.023438 C 5.085938 21.023438 5.203125 21.019531 5.320312 21.003906 C 5.367188 21.019531 5.414062 21.023438 5.457031 21.023438 L 16.371094 21.023438 C 17.816406 21.027344 19.214844 20.457031 20.238281 19.429688 C 21.257812 18.402344 21.832031 17.015625 21.832031 15.566406 C 21.832031 14.121094 21.257812 12.730469 20.238281 11.707031 C 19.214844 10.683594 17.824219 10.105469 16.371094 10.105469 Z M 16.371094 10.105469 "/>
<path style=" stroke:none;fill-rule:nonzero;fill:rgb(100%,100%,100%);fill-opacity:0.392;" d="M 16.371094 10.105469 C 14.269531 10.101562 12.347656 11.316406 11.441406 13.21875 C 11.109375 13.128906 10.761719 13.089844 10.417969 13.089844 C 8.769531 13.082031 7.292969 14.105469 6.707031 15.636719 C 5.808594 14.976562 4.605469 14.882812 3.609375 15.394531 C 2.613281 15.902344 1.988281 16.925781 1.988281 18.046875 L 1.988281 18.167969 C 2.050781 16.574219 3.371094 15.316406 4.964844 15.324219 C 5.613281 15.324219 6.214844 15.527344 6.707031 15.886719 C 7.292969 14.34375 8.769531 13.332031 10.417969 13.335938 C 10.761719 13.335938 11.109375 13.382812 11.441406 13.464844 C 12.347656 11.566406 14.269531 10.355469 16.371094 10.359375 C 19.339844 10.355469 21.769531 12.726562 21.824219 15.691406 C 21.832031 15.652344 21.832031 15.609375 21.832031 15.566406 C 21.839844 14.121094 21.261719 12.730469 20.238281 11.707031 C 19.214844 10.683594 17.824219 10.105469 16.371094 10.105469 Z M 16.371094 10.105469 "/>
<path style=" stroke:none;fill-rule:nonzero;fill:rgb(0%,0%,0%);fill-opacity:0.235;" d="M 21.824219 15.457031 C 21.773438 18.425781 19.339844 20.808594 16.371094 20.800781 L 5.457031 20.800781 C 5.410156 20.800781 5.367188 20.789062 5.320312 20.777344 C 5.203125 20.789062 5.085938 20.800781 4.964844 20.800781 C 3.363281 20.800781 2.042969 19.535156 1.988281 17.933594 L 1.988281 18.046875 C 1.988281 19.699219 3.308594 21.023438 4.964844 21.023438 C 5.085938 21.023438 5.203125 21.019531 5.320312 21.003906 C 5.367188 21.019531 5.410156 21.023438 5.457031 21.023438 L 16.371094 21.023438 C 17.816406 21.027344 19.207031 20.457031 20.230469 19.429688 C 21.257812 18.402344 21.832031 17.015625 21.832031 15.566406 C 21.832031 15.527344 21.832031 15.492188 21.824219 15.457031 Z M 21.824219 15.457031 "/>
<path style="fill:none;stroke-width:0.0937735;stroke-linecap:round;stroke-linejoin:miter;stroke:rgb(12.941177%,12.941177%,12.941177%);stroke-opacity:1;stroke-miterlimit:4;" d="M 10.914062 6.736979 C 9.513021 6.736979 8.231771 7.544271 7.627604 8.8125 C 7.40625 8.752604 7.174479 8.726562 6.945312 8.726562 C 5.846354 8.721354 4.861979 9.403646 4.471354 10.424479 C 3.872396 9.984375 3.070312 9.921875 2.40625 10.263021 C 1.742188 10.601562 1.325521 11.283854 1.325521 12.03125 C 1.325521 13.132812 2.205729 14.015625 3.309896 14.015625 C 3.390625 14.015625 3.46875 14.013021 3.546875 14.002604 C 3.578125 14.013021 3.609375 14.015625 3.638021 14.015625 L 10.914062 14.015625 C 11.877604 14.018229 12.809896 13.638021 13.492188 12.953125 C 14.171875 12.268229 14.554688 11.34375 14.554688 10.377604 C 14.554688 9.414062 14.171875 8.486979 13.492188 7.804688 C 12.809896 7.122396 11.882812 6.736979 10.914062 6.736979 Z M 10.914062 6.736979 " transform="matrix(1.5,0,0,1.5,0,0)"/>
<path style=" stroke:none;fill-rule:nonzero;fill:rgb(100%,100%,100%);fill-opacity:0.392;" d="M 13.167969 2.136719 C 11.964844 2.136719 10.910156 2.742188 10.289062 3.660156 C 9.738281 3.316406 9.097656 3.128906 8.449219 3.136719 C 6.914062 3.136719 5.636719 4.113281 5.308594 5.433594 C 4.699219 5.035156 3.917969 5.003906 3.28125 5.355469 C 2.644531 5.699219 2.246094 6.375 2.25 7.101562 L 2.25 7.222656 C 2.320312 6.183594 3.1875 5.367188 4.230469 5.367188 C 4.628906 5.367188 4.996094 5.480469 5.308594 5.675781 C 5.636719 4.359375 6.914062 3.378906 8.449219 3.378906 C 9.136719 3.378906 9.769531 3.574219 10.289062 3.910156 C 10.933594 2.953125 12.019531 2.386719 13.167969 2.390625 C 15.046875 2.390625 16.570312 3.871094 16.636719 5.738281 L 16.636719 5.613281 C 16.640625 4.691406 16.269531 3.808594 15.621094 3.160156 C 14.972656 2.503906 14.085938 2.136719 13.167969 2.136719 Z M 5.988281 8.285156 C 5.976562 8.300781 5.964844 8.324219 5.953125 8.34375 L 6.042969 8.34375 C 6.023438 8.320312 6.003906 8.300781 5.988281 8.285156 Z M 5.988281 8.285156 "/>
<path style=" stroke:none;fill-rule:nonzero;fill:rgb(0%,0%,0%);fill-opacity:0.235;" d="M 16.519531 5.507812 C 16.464844 7.382812 14.925781 8.878906 13.050781 8.871094 L 4.113281 8.871094 C 3.058594 8.871094 2.191406 8.050781 2.132812 6.996094 L 2.132812 7.101562 C 2.132812 8.203125 3.019531 9.089844 4.113281 9.089844 L 13.050781 9.089844 C 13.96875 9.089844 14.855469 8.722656 15.503906 8.074219 C 16.160156 7.417969 16.523438 6.535156 16.519531 5.613281 Z M 5.871094 7.816406 C 5.859375 7.832031 5.847656 7.855469 5.835938 7.875 L 5.925781 7.875 C 5.90625 7.855469 5.886719 7.839844 5.871094 7.816406 Z M 5.871094 7.816406 "/>
<path style="fill:none;stroke-width:0.09375;stroke-linecap:square;stroke-linejoin:round;stroke:rgb(12.941177%,12.941177%,12.941177%);stroke-opacity:1;stroke-miterlimit:4;" d="M 8.700521 1.424479 C 7.898438 1.424479 7.195312 1.828125 6.78125 2.440104 C 6.414062 2.210938 5.986979 2.085938 5.554688 2.091146 C 4.53125 2.091146 3.679688 2.742188 3.460938 3.622396 C 3.054688 3.356771 2.533854 3.335938 2.109375 3.570312 C 1.684896 3.799479 1.419271 4.25 1.421875 4.734375 C 1.421875 5.46875 2.013021 6.059896 2.742188 6.059896 L 8.700521 6.059896 C 9.3125 6.059896 9.903646 5.815104 10.335938 5.382812 C 10.773438 4.945312 11.015625 4.356771 11.013021 3.742188 C 11.015625 3.127604 10.773438 2.539062 10.335938 2.106771 C 9.903646 1.669271 9.3125 1.424479 8.700521 1.424479 Z M 3.914062 5.356771 C 3.924479 5.372396 3.9375 5.382812 3.950521 5.393229 L 3.890625 5.393229 C 3.898438 5.382812 3.90625 5.367188 3.914062 5.356771 Z M 3.914062 5.356771 " transform="matrix(1.5,0,0,1.5,0,0)"/>
</g>
</svg>

<svg xmlns="http://www.w3.org/2000/svg" width="24" height="24"><defs><linearGradient id="a" gradientUnits="userSpaceOnUse" x1="254" y1="233.5" x2="254" y2="254.667" gradientTransform="matrix(.04688 0 0 .04688 0 9.831)"><stop offset="0" stop-opacity=".275"/><stop offset="1" stop-opacity="0"/></linearGradient><radialGradient id="b" gradientUnits="userSpaceOnUse" cx="450.909" cy="189.579" fx="450.909" fy="189.579" r="21.167" gradientTransform="matrix(0 -.0586 -.10548 0 36.865 47.448)"><stop offset="0" stop-opacity=".314"/><stop offset=".222" stop-opacity=".275"/><stop offset="1" stop-opacity="0"/></radialGradient><radialGradient id="c" gradientUnits="userSpaceOnUse" cx="450.909" cy="189.579" fx="450.909" fy="189.579" r="21.167" gradientTransform="matrix(0 .0586 .10548 0 -14.787 -5.894)"><stop offset="0" stop-opacity=".314"/><stop offset=".222" stop-opacity=".275"/><stop offset="1" stop-opacity="0"/></radialGradient><radialGradient id="d" gradientUnits="userSpaceOnUse" cx="450.909" cy="189.579" fx="450.909" fy="189.579" r="21.167" gradientTransform="matrix(0 -.0586 .10548 0 -14.787 47.448)"><stop offset="0" stop-opacity=".314"/><stop offset=".222" stop-opacity=".275"/><stop offset="1" stop-opacity="0"/></radialGradient><radialGradient id="e" gradientUnits="userSpaceOnUse" cx="450.909" cy="189.579" fx="450.909" fy="189.579" r="21.167" gradientTransform="matrix(0 .0586 -.10548 0 36.865 -5.894)"><stop offset="0" stop-opacity=".314"/><stop offset=".222" stop-opacity=".275"/><stop offset="1" stop-opacity="0"/></radialGradient><linearGradient id="f" gradientUnits="userSpaceOnUse" x1="211.667" y1="-20.5" x2="211.667" y2="-168.667" gradientTransform="matrix(.04688 0 0 .04688 -.117 10.047)"><stop offset="0" stop-color="#64b5f6"/><stop offset="1" stop-color="#90caf9"/></linearGradient><linearGradient id="g" gradientUnits="userSpaceOnUse" x1="960" y1="1695.118" x2="960" y2="815.118" gradientTransform="scale(.0124)"><stop offset="0" stop-color="#64b5f6"/><stop offset="1" stop-color="#90caf9"/></linearGradient></defs><path d="M4.96 20.777h12.157v.993H4.961zm0 0" fill="url(#a)"/><path d="M17.117 20.777h1.985v-.992h-1.985zm0 0" fill="url(#b)"/><path d="M4.96 20.777H2.978v.993H4.96zm0 0" fill="url(#c)"/><path d="M4.96 20.777H2.978v-.992H4.96zm0 0" fill="url(#d)"/><path d="M17.117 20.777h1.985v.993h-1.985zm0 0" fill="url(#e)"/><path d="M13.047 2.14a3.46 3.46 0 0 0-2.875 1.52 3.427 3.427 0 0 0-1.84-.527c-1.531 0-2.809.98-3.14 2.3a1.98 1.98 0 0 0-1.075-.316 1.98 1.98 0 0 0-1.984 1.985c0 1.101.883 1.984 1.984 1.984h8.93a3.465 3.465 0 0 0 3.473-3.473 3.465 3.465 0 0 0-3.473-3.472zM5.87 8.036c.016.02.035.04.055.059h-.09l.035-.059zm0 0" fill="url(#f)"/><path d="M16.371 10.11a5.449 5.449 0 0 0-4.93 3.109 3.994 3.994 0 0 0-1.023-.133 3.96 3.96 0 0 0-3.707 2.55 2.973 2.973 0 0 0-1.75-.566 2.97 2.97 0 0 0-2.977 2.977 2.972 2.972 0 0 0 3.34 2.957.38.38 0 0 0 .133.023h10.918a5.45 5.45 0 0 0 5.457-5.46 5.448 5.448 0 0 0-5.46-5.458zm0 0" fill="url(#g)"/><path d="M16.371 10.11a5.449 5.449 0 0 0-4.93 3.109 3.994 3.994 0 0 0-1.023-.133 3.96 3.96 0 0 0-3.707 2.55 2.973 2.973 0 0 0-1.75-.566 2.97 2.97 0 0 0-2.973 3.102 2.968 2.968 0 0 1 2.973-2.852 2.97 2.97 0 0 1 1.75.563 3.957 3.957 0 0 1 3.707-2.547c.355 0 .7.047 1.023.133a5.442 5.442 0 0 1 4.93-3.11 5.444 5.444 0 0 1 5.457 5.332c0-.039.004-.082.004-.125a5.448 5.448 0 0 0-5.46-5.457zm0 0" fill="#fff" fill-opacity=".392"/><path d="M21.828 15.453a5.447 5.447 0 0 1-5.453 5.348H5.457a.38.38 0 0 1-.133-.024 2.971 2.971 0 0 1-3.336-2.844c-.004.04-.004.079-.004.114a2.972 2.972 0 0 0 3.34 2.957.38.38 0 0 0 .133.023h10.918a5.45 5.45 0 0 0 5.457-5.46c0-.036-.004-.075-.004-.114zm0 0" fill-opacity=".235"/><path d="M16.371 10.11a5.449 5.449 0 0 0-4.93 3.109 3.994 3.994 0 0 0-1.023-.133 3.96 3.96 0 0 0-3.707 2.55 2.973 2.973 0 0 0-1.75-.566 2.97 2.97 0 0 0-2.977 2.977 2.972 2.972 0 0 0 3.34 2.957.38.38 0 0 0 .133.023h10.918a5.45 5.45 0 0 0 5.457-5.46 5.448 5.448 0 0 0-5.461-5.458zm0 0" fill="none" stroke-width=".1406036" stroke-linecap="round" stroke="#212121"/><path d="M13.164 2.14a3.46 3.46 0 0 0-2.875 1.52 3.427 3.427 0 0 0-1.84-.527c-1.531 0-2.808.98-3.14 2.3a1.98 1.98 0 0 0-1.075-.316 1.98 1.98 0 0 0-1.98 2.11 1.976 1.976 0 0 1 1.98-1.86c.395 0 .766.113 1.075.313.332-1.32 1.609-2.301 3.14-2.301.684 0 1.317.195 1.84.531a3.454 3.454 0 0 1 2.875-1.523 3.463 3.463 0 0 1 3.469 3.351c.004-.043.004-.082.004-.125a3.465 3.465 0 0 0-3.473-3.472zM5.988 8.282l-.035.063h.09c-.02-.02-.04-.04-.055-.063zm0 0" fill="#fff" fill-opacity=".392"/><path d="M16.516 5.504a3.463 3.463 0 0 1-3.47 3.367H4.118a1.983 1.983 0 0 1-1.984-1.879v.11c0 1.101.883 1.984 1.984 1.984h8.93a3.465 3.465 0 0 0 3.473-3.473c0-.035 0-.07-.004-.11zM5.87 7.816c-.012.024-.023.043-.035.063h.09c-.02-.02-.04-.04-.055-.063zm0 0" fill-opacity=".235"/><path d="M13.047 2.14a3.46 3.46 0 0 0-2.875 1.52 3.427 3.427 0 0 0-1.84-.527c-1.531 0-2.809.98-3.14 2.3a1.98 1.98 0 0 0-1.075-.316 1.98 1.98 0 0 0-1.984 1.985c0 1.101.883 1.984 1.984 1.984h8.93a3.465 3.465 0 0 0 3.473-3.473 3.465 3.465 0 0 0-3.473-3.472zM5.87 8.036a.75.75 0 0 0 .055.059h-.09l.035-.059zm0 0" fill="none" stroke-width=".14064" stroke-linecap="square" stroke-linejoin="round" stroke="#212121"/></svg>
